Hatter-kde-dark/actions/16/download-later.svg

<?xml version="1.0" encoding="UTF-8"?>
<svg viewBox="0 0 16 16" xmlns="http://www.w3.org/2000/svg">
 <defs id="defs3051">
  <style id="current-color-scheme" type="text/css">.ColorScheme-Text {
        color:#dedede;
      }</style>
 </defs>
 <path class="ColorScheme-Text" d="m8 2a6 6 0 0 0-6 6 6 6 0 0 0 6 6 6 6 0 0 0 1-0.089844v-1.0152a5 5 0 0 1-1 0.105 5 5 0 0 1-5-5 5 5 0 0 1 5-5 5 5 0 0 1 5 5h1a6 6 0 0 0-6-6m0 2v4h-3v1h4v-5zm3 5v3.09l-2-2v1.41l2.281 2.313 0.219 0.187 0.219-0.187 2.281-2.313v-1.41l-2 2v-3.09z" fill="currentColor"/>
</svg>

<svg xmlns="http://www.w3.org/2000/svg" viewBox="0 0 16 16">
  <defs id="defs3051">
    <style type="text/css" id="current-color-scheme">
      .ColorScheme-Text {
        color:#dedede;
      }
      </style>
  </defs>
 <path style="fill:currentColor;fill-opacity:1;stroke:none" 
     d="M8 2A6.00001 6.00001 0 0 0 2 8 6.00001 6.00001 0 0 0 8 14 6.00001 6.00001 0 0 0 9 13.910156V12.895A5 5 0 0 1 8 13 5 5 0 0 1 3 8 5 5 0 0 1 8 3 5 5 0 0 1 13 8H14A6.00001 6.00001 0 0 0 8 2M8 4V8H5V9H9V4zM11 9V12.09L9 10.09V11.5L11.281 13.813 11.5 14 11.719 13.813 14 11.5V10.09L12 12.09V9z"
     class="ColorScheme-Text"
     />
</svg>
